X: 4
T: Caisleán An Óir
R: hornpipe
M: 4/4
L: 1/8
K: Ddor
A,DCE D2 DG|ABBA d2 de|dcAG EAGE|EDCA, C2 A,G,|
A,DCE D2 DG|ABBA d2 de|dcAG EAGE|EDDC D2-:|
Adde f2 ed|dcAB c2 cA|dcAG EAGE|EDCA, C2 A,G,|
A,DCE D2 DG|ABBA d2 de|dcAG EAGE|EDDC D2-:|

